X:1
T:Title
T:Compo 5
T:Dianna Smith
C:Composer
%%score { ( 1 4 ) | ( 2 3 ) }
L:1/8
Q:1/4=80
M:4/4
K:Db
V:1 treble nm="Piano" snm="Pno."
V:4 treble 
V:2 bass 
V:3 bass 
V:1
!pp! (3EAG (3FEA (3GFE (3AGF | (3EAG (3FEA (3GFE (3AGF | (3EAG (3FEA (3GFE (3AGF | %3
 (3EAG (3FEA (3GFE (3AGF | (3EAG (3FEA (3GFE (3AGF | (3EAG (3FEA (3GFE (3AGF | %6
 (3DAG (3FDA (3GFD (3AGF | (3DAG (3FDA (3GFD (3AGF | (3EAG (3FEA (3GFE (3AGF | %9
 (3EAG (3FEA (3GFE (3AGF | (3DAG (3FDA (3GFD (3AGF | (3DAG (3FDA (3GFD (3AGF | %12
 (3EAG (3FEA (3GFE (3AGF | (3EAG (3FEA (3GFE (3AGF | (3DAG (3FDA (3GFD (3AGF | %15
 (3DAG (3FDA!<(! (3GFD (3AGF!<)! ||[K:Db]!p![Q:1/4=81] (3EBA (3GEB (3AGE (3BAG | %17
 (3EBA (3GEB (3AGE (3BAG | (3FdA (3GFd (3AGF (3dAG | (3FdA (3GFd (3AGF (3cAF | %20
 (3GdB (3AGd (3BAG (3dBA |[K:Db] (3GdB (3AGd (3BAG (3dBG | (3Aec (3BAe (3cBA (3ecB | %23
 (3Aec (3BAe!<(! (3cBA (3ecB!<)! |!mp![Q:1/4=82] (3Gec (3BGe (3cBG (3ecB | %25
 (3Ged (3BGe (3dBG (3edB | (3Fed (3cFe (3dcF (3edc | (3Fed (3cFe!<(! (3dcF (3EDC!<)! || %28
[Q:1/4=85]!mf! (3B,FE (3DB,F (3EDB, (3FED | (3B,FE (3DB,F (3EDB, (3FED | (3CGF (3ECG (3FEC (3GFE | %31
 (3CGF (3ECG (3FEC (3GFE | (3DGF (3EDG (3FED (3GFE | (3DGF (3EDG (3FED (3GFD | %34
 (3E[FA]G (3FE[FA] (3GFE (3[FA]GF | (3E[FA]G (3FE[FA] (3GFE (3[FA]GF | %36
 (3D[EG]F (3ED[EG] (3FED (3[EG]FE | (3D[EG]F (3ED[EG] (3FED (3[EG]FE | %38
 (3[EB][Af][Ge] (3[Fd][EB][Af] (3[Ge][Fd][EB] (3[Af][Ge][Fd] | %39
 (3[EB][Af][Ge] (3[Fd][EB][Af] (3[Ge][Fd][EB] (3[Af][Ge][Fd] | %40
 (3[DA][Gd][Fc] (3[EB][DA][Gd] (3[Fc][EB][DA] (3[Gd][Fc][EB] | %41
 (3[DA][Gd][Fc] (3[EB][DA][Gd] (3[Fc][EB][DA] (3[Gd][cf][ea] |!pp! e'8 | e8 | e'8 | e8[Q:1/4=83] | %46
[Q:1/4=82] d'8 | d8 | e'4 e4 | e'4 e4 | d'4 d4 | d'4 d4 | e'4 (3[Be]2 [eg]2 [gb]2 | %53
 e'4 (3[Be]2 [eg]2 [Be]2 | d4 d4 | d4 (3[da]2 [fd']2 [af']2 | [e'g']4 g4 | %57
 [bg']4 (3[eg]2 [gb]2 [be']2 | [af']4 d4 | [ad']4 (3[df]2 [fa]2 [ac']2 | [gb]4 [ad']4 | %61
 [gb]4 (3[Bd]2 [dg]2 [gb]2 | [ea]4 [c'a']4 | [c'e']4!<(! (3[ea]2 [bc']2 [c'e']2!<)! | %64
 [d'g']4 [eg]4 | g'4 (3[bg']2 [be']2 [bd']2 | c'4 f4 |!p!!>(! c'4 (3:2:2f'2 e' (3:2:2d'2 c'!>)! | %68
 !fermata!b8 | a4 A4 | a4 (3A2 c2 e2 | [dgaf']8 | z4 (3c2 e2 c2 | [dgabc'f']8 | %74
 z4 (3[dg]2 [de]2 [Ad]2 | f4 e4 | f4 (3A2 e2 a2 | f4 g4 | e4 (3c'2 a2 e2 | f4 e4 | f4 (3A2 e2 a2 | %81
 f4 b4 | e8 | f4 e4 | f4 (3A2 e2 a2 | f4 f4 | !fermata!d8 |[Q:1/4=90] (3A,CB, (3DCE (3DFE (3GFA | %88
 (3GBA (3cBd (3ced (3feg | (3fga (3gfg (3agf (3agf | (3ega (3gfg (3agf (3agf | %91
 (3deg (3ede (3ged (3ged | (3deg (3ede (3ged (3ged | (3ega (3gfg (3agf (3agf | %94
 (3ega (3gfg (3agf (3agf | (3deg (3ede (3ged (3ged | (3deg (3ede (3ged (3agf | %97
 (3eag (3fea (3gfe (3agf | (3eag (3fea (3gfe (3agf | %99
[Q:1/4=88]!<(! (3dAG (3FDA[Q:1/4=87] (3GF[Q:1/4=86]D (3A,G,F,!<)! | %100
[K:bass] (3D,A,G, (3F,D,A, (3G,F,D, (3A,G,F, |[Q:1/4=85] (3E,A,G, (3F,E,A, (3G,F,E, (3A,G,F, | %102
 (3E,A,G, (3F,E,A, (3G,F,E, (3A,G,F, | (3D,A,G, (3F,D,A, (3G,F,D, (3A,G,F, | %104
 (3D,A,G, (3F,D,A,!<(! (3G,F,D, (3F,G,A,!<)! |[K:treble]!p! (3EBA (3GEB (3AGE (3BAG | %106
 (3EBA (3GEB (3AGE (3BAG | (3FdA (3GFd (3AGF (3dAG | (3FdA (3GFd (3AGF (3cAF | %109
 (3GdB (3AGd (3BAG (3dBA | (3GdB (3AGd (3BAG (3dBG | (3Aec (3BAe (3cBA (3ecB | %112
 (3Aec (3BAe!<(! (3cBA (3ecB!<)! | (3Gec (3BGe (3cBG (3ecB | (3Ged (3BGe (3dBG (3edB | %115
 (3Fed (3cFe (3dcF (3edc |!<(! (3Fed (3cAf (3ecB (3aec!<)! | (3[df]Bd (3fbf (3[ce]Ac (3eae | %118
 (3fdB (3dBF (3EBA (3GEB | (3fcA (3cAF (3EAG (3FEA | (3BAG (3EGB (3Aea (3cea | %121
 (3d2 a2 b2 (3c'2 b2 a2 | (3dag (3fda (3gfd (3agf | (3d2 e2 f2 g2 b2 | [Bde]8 | f4 e4 | %126
 f4 (3A2 e2 a2 |[Q:1/4=83] f4[Q:1/4=80] f4 | !fermata![Dd]8 |] %129
V:2
 z8 | z8 | E,8 | E,,8 | E,8 | E,,8 | D,8 | D,,8 | E,4 E,,4 | E,4 E,,4 | D,4 D,,4 | D,4 D,,4 | %12
 E,4 (3E,,2 G,,2 B,,2 | E,4 (3E,,2 G,,2 E,,2 | D,,4 D,,4 | D,,4!<(! (3D,,2 F,,2 A,,2!<)! || %16
[K:Db] B,,4 G,4 | B,,4 (3E,,2 G,,2 B,,2 | A,,4 D,,4 | A,,4 (3D,,2 A,,2 C,2 | B,,4 D,4 | %21
[K:Db] B,,4 (3D,,2 G,,2 B,,2 | A,,4 A,4 | C,4!<(! (3A,,2 C,2 E,2!<)! | G,4 G,,4 | %25
 G,4 (3G,2 E,2 D,2 | C,4 F,,4 | [C,,C,]4!<(! (3[E,F,E]2 [D,F,D]2 [C,E,C]2!<)! || [B,,,B,,]8 | %29
 [B,,,B,,]8 | [C,,C,]8 | [C,,C,]4 [C,C]4 | [D,,D,]8 | [D,,D,]4 [D,D]4 | [E,,E,]8 | %35
 [E,,E,]4 [E,E]4 | [D,,D,]8 | [D,,D,]4 [D,D]4 | [E,,E,]4 (3[E,,E,]2 [G,,G,]2 [B,,B,]2 | %39
 [E,,E,]4 (3[E,,E,]2 [G,,G,]2 [E,,E,]2 | [D,,D,]4 [D,,D,]4 | [D,,D,]4!>(! (3:2:6D,E,F,G,A,D!>)! | %42
[K:treble] (3EAG (3FEA (3GFE (3AGF | (3EAG (3FEA (3GFE (3AGF | (3EAG (3FEA (3GFE (3AGF | %45
 (3EAG (3FEA (3GFE (3AGF | (3DAG (3FDA (3GFD (3AGF | (3DAG (3FDA (3GFD (3AGF | %48
 (3EAG (3FEA (3GFE (3AGF | (3EAG (3FEA (3GFE (3AGF | (3DAG (3FDA (3GFD (3AGF | %51
 (3DAG (3FDA (3GFD (3AGF | (3EAG (3FEA (3GFE (3AGF | (3EAG (3FEA (3GFE (3AGF | %54
 (3DAG (3FDA (3GFD (3AGF | (3DAG (3FDA (3GFD (3AGF | (3EBA (3GEB (3AGE (3BAG | %57
 (3EBA (3GEB (3AGE (3BAG | (3FdA (3GFd (3AGF (3dAG | (3FdA (3GFd (3AGF (3cAF | %60
 (3GdB (3AGd (3BAG (3dBG | (3GdB (3AGd (3BAG (3dBG | (3Aec (3BAe (3cBA (3ecB | %63
 (3Aec (3BAe!<(! (3cBA (3ecB!<)! |!p! (3Ged (3BGe (3dBG (3edB | (3Ged (3BGe (3dBG (3edB | %66
 (3Fed (3cFe (3dcF (3edc |!>(! (3Fed (3cAf (3edg (3fed!>)! | B8 | A8 | [Ae]8 | f8 | A8 | z8 | %74
 [Bdfa]8 | d4 c4 | d4 (3d2 B2 F2 | D4 b4 | G4 z4 | (3F2 B2 d2 (3A2 B2 e2 | [DBd]4 (3F2 B2 c2 | %81
 (3:2:2d4 B2 G2 B2 | [Bd]8 | [Dd]4 [Cc]4 | [B,B]4 [A,A]4 | d4 [Be]4 | [DF]8 | z8 | %88
 g2 f2 (3:2:6abc'd'c'b | (3a2 e'2 f'2 (3g'2 f'2 e'2 | (3a'2 e'2 f'2 (3g'2 f'2 e'2 | %91
 (3a2 f'2 g'2 (3a'2 g'2 f'2 | (3a2 f'2 g'2 (3a'2 g'2 f'2 | (3ae'f' (3g'f'e' (3a'e'f' (3g'f'e' | %94
 (3ae'f' (3g'f'e' (3a'e'f' (3g'f'e' | (3af'g' (3a'g'f' (3a'f'g' (3a'g'f' | %96
 (3af'g' (3a'g'f' (3af'g' (3d'c'b | e'4 (3:2:6efgabd' | e'4 (3:2:6efgege |!<(! d4 D4!<)! | %100
[K:bass] D,4 D,,4 | E,4 (3E,,2 G,,2 B,,2 | E,4 (3E,,2 G,,2 E,,2 | D,,4 D,,4 | %104
 D,,4!<(! (3D,,2 F,,2 A,,2!<)! | B,,4 G,4 | B,,4 (3E,,2 G,,2 B,,2 | A,,4 D,,4 | %108
 A,,4 (3D,,2 A,,2 C,2 | B,,4 D,4 | B,,4 (3D,,2 G,,2 B,,2 | A,,4 A,4 | C,4!<(! (3A,,2 C,2 E,2!<)! | %113
 G,4 G,,4 | G,4 (3G,2 E,2 D,2 | C,4 F,,4 |!<(! C,4 (3[E,G,]2 [B,,E,]2 [A,,D,]2!<)! | %117
 [D,F,]4 [C,E,]4 | [D,F,]4 (3A,,2 E,2 A,2 | [A,,F,]4 [G,B,]4 | E,4 (3C2 A,2 E,2 | %121
 [F,,B,,F,]4 [E,,A,,E,]4 | [F,,D,F,]4 (3[A,,C,]2 [E,A,]2 [A,C]2 | [F,,F,]4 [B,,G,B,]4 | %124
 z4 (3EDC (3A,F,E, | [D,D]4 [C,C]4 | [B,,B,]4 [A,,A,]4 | [D,D]4 [E,B,E]4 | [D,F,]8 |] %129
V:3
 x8 | x8 | x8 | x8 | x8 | x8 | x8 | x8 | x8 | x8 | x8 | x8 | x8 | x8 | x8 | x8 ||[K:Db] x8 | x8 | %18
 x8 | x8 | x8 |[K:Db] x8 | x8 | x8 | x8 | x8 | x8 | x8 || x8 | x8 | x8 | x8 | x8 | x8 | x8 | x8 | %36
 x8 | x8 | x8 | x8 | x8 | x4 D,,4 |[K:treble] x8 | x8 | x8 | x8 | x8 | x8 | x8 | x8 | x8 | x8 | %52
 x8 | x8 | x8 | x8 | x8 | x8 | x8 | x8 | x8 | x8 | x8 | x8 | x8 | x8 | x8 | x8 | x8 | x8 | x8 | %71
 x8 | x8 | x8 | x8 | x8 | x8 | x8 | x8 | x8 | x8 | x8 | x8 | x8 | x8 | x8 | x8 | x8 | x8 | x8 | %90
 x8 | x8 | x8 | x8 | x8 | x8 | x8 | x8 | x8 | x8 |[K:bass] x8 | x8 | x8 | x8 | x8 | x8 | x8 | x8 | %108
 x8 | x8 | x8 | x8 | x8 | x8 | x8 | x8 | x8 | x8 | x8 | x8 | x8 | x8 | x8 | x8 | [E,,E,]8 | x8 | %126
 x8 | x8 | x8 |] %129
V:4
 x8 | x8 | x8 | x8 | x8 | x8 | x8 | x8 | x8 | x8 | x8 | x8 | x8 | x8 | x8 | x8 ||[K:Db] x8 | x8 | %18
 x8 | x8 | x8 |[K:Db] x8 | x8 | x8 | x8 | x8 | x8 | x8 || x8 | x8 | x8 | x8 | x8 | x8 | x8 | x8 | %36
 x8 | x8 | x8 | x8 | x8 | x8 | x8 | x8 | x8 | x8 | x8 | x8 | x8 | x8 | x8 | x8 | x8 | x8 | x8 | %55
 x8 | x8 | x8 | x8 | x8 | x8 | x8 | x8 | x8 | x8 | x8 | x8 | x8 | x8 | x8 | x8 | x8 | [ceae']8 | %73
 x8 | x8 | x8 | x8 | x8 | x8 | x8 | x8 | x8 | x8 | x8 | x8 | x8 | x8 | x8 | x8 | x8 | x8 | x8 | %92
 x8 | x8 | x8 | x8 | x8 | x8 | x8 | x8 |[K:bass] x8 | x8 | x8 | x8 | x8 |[K:treble] x8 | x8 | x8 | %108
 x8 | x8 | x8 | x8 | x8 | x8 | x8 | x8 | x8 | x8 | x8 | x8 | x8 | x8 | x8 | x8 | x8 | x8 | x8 | %127
 x8 | x8 |] %129

